X:7585
T:Tom & Jerry. HSJJ.092
O:england
M:6/8
L:1/8
S:HSJ Jackson,Wyresdale,Lancs.1823
R:Jig
A:Lancashire
H:1823
K:G
D|G2BG2B|G2G GAB|c2AB2G|A2AA2D|G2BG2B|Ggf edc|BdG AcF|A3G2:|
|d|^c2c cBc|d2fa2f|g2e^c2A|d2fA2d|^c2c c-Bc|d2fa2f|g2e^c2A|d3-"DC"d2|]


